;Sliced by ideaMaker 4.2.2.5450, 2023-01-17 13:00:51 UTC-0500
;Dimension: 365.000 240.000 240.000 0.400 0.400
;Plate Shape: 0
;Origin Center: 0
;Extruder Offset #1: 0.000 0.000
;Filament Diameter #1: 1.750
;Filament Diameter #2: 1.750
;Filament Compensation #1: 96.00
;Filament Compensation #2: 96.00
;Filament Density #1: 1240.00
;Filament Density #2: 1240.00
;Bounding Box: 60.725 111.025 98.053 141.950 0.000 52.770
;Model Gap: 0.200
M605 S2
M221 S96.00
M140 S55.00
M104 S205.00
M109 S205.00
M190 S55.00
M572 D0 S0.09
M572 D1 S0.09
G21
G90
M82
M107
G28
G1 Z0 F500
G92 E0
G1 Z0.2 F400
G1 X60 Y-2 F800
G1 X140 Y-2 E12 F200
G1 Z5 E15 F200
G92 E0
G1 F9000.0
M117 Printing...
M1001
;TOTAL_NUM: 1
;PRINTING_TIME: 0
;REMAINING_TIME: 5822
M106 S0
;LAYER:-2
;Z:0.350
;HEIGHT:0.500
;PRINTING: NON-OBJECT
;PRINTING_ID: -1
G0 F9000 X93.204 Y99.745
G0 F900 Z0.350
;TYPE:RAFT
;WIDTH:0.800
G1 F480 X93.498 Y99.503 E0.0633
G1 X94.050 Y99.123 E0.1748
G1 X94.655 Y98.814 E0.2877
G1 X95.154 Y98.636 E0.3759
G1 X95.496 Y98.551 E0.4345
G1 X96.154 Y98.461 E0.5449
G1 X99.273 Y98.453 E1.0636
G1 X99.840 Y98.496 E1.1582
G1 X100.330 Y98.587 E1.2410
G1 X100.844 Y98.747 E1.3306
G1 X101.317 Y98.955 E1.4165
G1 X101.622 Y99.125 E1.4746
G1 X102.172 Y99.519 E1.5871
G1 X102.550 Y99.871 E1.6730
G1 X102.893 Y100.273 E1.7609
G1 X103.182 Y100.704 E1.8472
G1 X103.475 Y101.267 E1.9527
G1 X103.702 Y101.851 E2.0569
G1 X103.833 Y102.361 E2.1445
G1 X103.968 Y103.323 E2.3060
G1 X104.102 Y103.800 E2.3884
G1 X104.306 Y104.253 E2.4710
G1 X104.572 Y104.671 E2.5534
G1 X104.898 Y105.046 E2.6361
G1 X105.275 Y105.369 E2.7186
G1 X105.694 Y105.635 E2.8012
G1 X106.149 Y105.837 E2.8839
G1 X107.105 Y106.095 E3.0486
G1 X107.763 Y106.351 E3.1660
G1 X108.168 Y106.573 E3.2428
G1 X108.841 Y107.058 E3.3808
G1 X109.185 Y107.379 E3.4590
G1 X109.539 Y107.781 E3.5481
G1 X109.951 Y108.396 E3.6712
G1 X110.238 Y108.979 E3.7793
G1 X110.411 Y109.467 E3.8654
G1 X110.517 Y109.906 E3.9405
G1 X110.607 Y110.537 E4.0465
G1 X110.625 Y110.919 E4.1101
G1 X110.622 Y117.945 E5.2785
G1 X110.585 Y118.488 E5.3690
G1 X110.519 Y118.885 E5.4360
G1 X110.380 Y119.430 E5.5295
G1 X110.163 Y119.996 E5.6303
G1 X109.811 Y120.635 E5.7516
G1 X109.504 Y121.058 E5.8385
G1 X109.343 Y121.248 E5.8800
G1 X108.969 Y121.632 E5.9691
G1 X108.699 Y121.861 E6.0280
G1 X108.204 Y122.202 E6.1279
G1 X107.672 Y122.487 E6.2283
G1 X107.189 Y122.679 E6.3147
G1 X106.505 Y122.858 E6.4323
G1 X106.050 Y123.004 E6.5118
G1 X105.604 Y123.223 E6.5944
G1 X105.195 Y123.505 E6.6770
G1 X104.832 Y123.843 E6.7595
G1 X104.521 Y124.231 E6.8422
G1 X104.271 Y124.660 E6.9248
G1 X104.086 Y125.120 E7.0072
G1 X103.969 Y125.604 E7.0900
G1 X103.925 Y126.141 E7.1796
G1 X103.925 Y136.696 E8.9349
G1 X103.901 Y137.174 E9.0145
G1 X103.822 Y137.695 E9.1022
G1 X103.630 Y138.360 E9.2173
G1 X103.423 Y138.830 E9.3027
G1 X103.166 Y139.272 E9.3877
G1 X102.852 Y139.696 E9.4755
G1 X102.430 Y140.151 E9.5787
G1 X101.928 Y140.592 E9.6898
G1 X101.506 Y140.881 E9.7748
G1 X101.050 Y141.125 E9.8608
G1 X100.572 Y141.312 E9.9462
G1 X100.072 Y141.447 E10.0323
G1 X99.543 Y141.526 E10.1213
G1 X99.049 Y141.550 E10.2035
G1 X66.063 Y141.550 E15.6891
G1 X65.578 Y141.525 E15.7699
G1 X64.907 Y141.412 E15.8830
G1 X64.397 Y141.253 E15.9719
G1 X63.915 Y141.038 E16.0597
G1 X63.399 Y140.733 E16.1593
G1 X63.127 Y140.546 E16.2142
G1 X62.613 Y140.131 E16.3241
G1 X62.250 Y139.756 E16.4109
G1 X61.931 Y139.343 E16.4977
G1 X61.660 Y138.894 E16.5849
G1 X61.512 Y138.586 E16.6417
G1 X61.331 Y138.096 E16.7286
G1 X61.206 Y137.584 E16.8162
G1 X61.125 Y136.661 E16.9703
G1 X61.125 Y128.304 E18.3601
G1 X61.150 Y127.819 E18.4408
G1 X61.263 Y127.148 E18.5540
G1 X61.423 Y126.633 E18.6437
G1 X61.550 Y126.329 E18.6985
G1 X61.915 Y125.674 E18.8232
G1 X62.310 Y125.120 E18.9363
G1 X62.783 Y124.615 E19.0514
G1 X63.189 Y124.282 E19.1387
G1 X63.608 Y124.011 E19.2217
G1 X64.082 Y123.775 E19.3098
G1 X64.565 Y123.599 E19.3952
G1 X65.076 Y123.477 E19.4826
G1 X65.441 Y123.426 E19.5439
G1 X65.924 Y123.400 E19.6243
G1 X80.059 Y123.400 E21.9750
G1 X80.539 Y123.365 E22.0550
G1 X81.024 Y123.257 E22.1377
G1 X81.487 Y123.079 E22.2202
G1 X81.925 Y122.834 E22.3036
G1 X82.433 Y122.419 E22.4127
G1 X83.763 Y121.091 E22.7253
G1 X84.078 Y120.726 E22.8055
G1 X84.344 Y120.307 E22.8880
G1 X84.547 Y119.854 E22.9705
G1 X84.682 Y119.371 E23.0539
G1 X84.749 Y118.715 E23.1636
G1 X84.748 Y116.072 E23.6031
G1 X84.794 Y115.398 E23.7155
G1 X84.886 Y114.902 E23.7994
G1 X84.982 Y114.571 E23.8567
G1 X85.347 Y113.733 E24.0087
G1 X92.174 Y101.055 E26.4033
G1 X92.432 Y100.631 E26.4858
G1 X92.847 Y100.099 E26.5981
G1 X93.204 Y99.745 E26.6817
G0 F9000 X110.292 Y109.658
G1 F480 X110.292 Y119.127 E28.2564
G0 F9000 X107.868 Y122.201
G1 F480 X107.868 Y106.592 E30.8522
G0 F9000 X105.444 Y105.665
G1 F480 X105.444 Y123.140 E33.7583
G0 F9000 X103.020 Y139.202
G1 F480 X103.020 Y100.749 E40.1530
G0 F9000 X100.596 Y98.838
G1 F480 X100.596 Y141.131 E47.1864
G0 F9000 X98.172 Y141.390
G1 F480 X98.172 Y98.615 E54.2999
G0 F9000 X95.748 Y98.677
G1 F480 X95.748 Y141.390 E61.4031
G0 F9000 X93.324 Y141.390
G1 F480 X93.324 Y99.853 E68.3107
G0 F9000 X90.900 Y103.758
G1 F480 X90.900 Y141.390 E74.5689
G0 F9000 X88.476 Y141.390
G1 F480 X88.476 Y108.259 E80.0786
G0 F9000 X86.052 Y112.760
G1 F480 X86.052 Y141.390 E84.8398
G0 F9000 X83.628 Y141.390
G1 F480 X83.628 Y121.451 E88.1557
G0 F9000 X81.204 Y123.359
G1 F480 X81.204 Y141.390 E91.1543
G0 F9000 X78.780 Y141.390
G1 F480 X78.780 Y123.560 E94.1194
G0 F9000 X76.356 Y123.560
G1 F480 X76.356 Y141.390 E97.0846
G0 F9000 X73.932 Y141.390
G1 F480 X73.932 Y123.560 E100.0497
G0 F9000 X71.508 Y123.560
G1 F480 X71.508 Y141.390 E103.0148
G0 F9000 X69.084 Y141.390
G1 F480 X69.084 Y123.560 E105.9800
G0 F9000 X66.660 Y123.560
G1 F480 X66.660 Y141.390 E108.9451
G0 F9000 X64.236 Y141.006
G1 F480 X64.236 Y123.888 E111.7919
G0 F9000 X61.812 Y126.186
G1 F480 X61.812 Y138.836 E113.8956
;PRINTING_TIME: 90
;REMAINING_TIME: 5732
M106 S128
;LAYER:-2
;Z:0.850
;HEIGHT:0.500
;PRINTING: NON-OBJECT
;PRINTING_ID: -1
G0 F900 Z0.850
G0 F9000 X61.660 Y138.894
;TYPE:RAFT
;WIDTH:0.800
G1 F960 X61.512 Y138.586 E113.9524
G1 X61.331 Y138.096 E114.0393
G1 X61.206 Y137.584 E114.1269
G1 X61.125 Y136.661 E114.2810
G1 X61.125 Y128.304 E115.6708
G1 X61.150 Y127.819 E115.7515
G1 X61.263 Y127.148 E115.8647
G1 X61.423 Y126.633 E115.9544
G1 X61.550 Y126.329 E116.0092
G1 X61.915 Y125.674 E116.1339
G1 X62.310 Y125.120 E116.2470
G1 X62.783 Y124.615 E116.3621
G1 X63.189 Y124.282 E116.4494
G1 X63.608 Y124.011 E116.5324
G1 X64.082 Y123.775 E116.6204
G1 X64.565 Y123.599 E116.7059
G1 X65.076 Y123.477 E116.7933
G1 X65.441 Y123.426 E116.8546
G1 X65.924 Y123.400 E116.9350
G1 X80.059 Y123.400 E119.2857
G1 X80.539 Y123.365 E119.3657
G1 X81.024 Y123.257 E119.4483
G1 X81.487 Y123.079 E119.5308
G1 X81.925 Y122.834 E119.6143
G1 X82.433 Y122.419 E119.7234
G1 X83.763 Y121.091 E120.0359
G1 X84.078 Y120.726 E120.1161
G1 X84.344 Y120.307 E120.1987
G1 X84.547 Y119.854 E120.2812
G1 X84.682 Y119.371 E120.3646
G1 X84.749 Y118.715 E120.4743
G1 X84.748 Y116.072 E120.9138
G1 X84.794 Y115.398 E121.0262
G1 X84.886 Y114.902 E121.1100
G1 X84.982 Y114.571 E121.1674
G1 X85.347 Y113.733 E121.3194
G1 X92.174 Y101.055 E123.7140
G1 X92.432 Y100.631 E123.7965
G1 X92.847 Y100.099 E123.9087
G1 X93.204 Y99.745 E123.9923
G1 X93.498 Y99.503 E124.0557
G1 X94.050 Y99.123 E124.1671
G1 X94.655 Y98.814 E124.2801
G1 X95.154 Y98.636 E124.3682
G1 X95.496 Y98.551 E124.4268
G1 X96.154 Y98.461 E124.5372
G1 X99.273 Y98.453 E125.0559
G1 X99.840 Y98.496 E125.1505
G1 X100.330 Y98.587 E125.2334
G1 X100.844 Y98.747 E125.3229
G1 X101.317 Y98.955 E125.4088
G1 X101.622 Y99.125 E125.4669
G1 X102.172 Y99.519 E125.5794
G1 X102.550 Y99.871 E125.6653
G1 X102.893 Y100.273 E125.7532
G1 X103.182 Y100.704 E125.8395
G1 X103.475 Y101.267 E125.9450
G1 X103.702 Y101.851 E126.0492
G1 X103.833 Y102.361 E126.1368
G1 X103.968 Y103.323 E126.2983
G1 X104.102 Y103.800 E126.3807
G1 X104.306 Y104.253 E126.4634
G1 X104.572 Y104.671 E126.5458
G1 X104.898 Y105.046 E126.6284
G1 X105.275 Y105.369 E126.7110
G1 X105.694 Y105.635 E126.7935
G1 X106.149 Y105.837 E126.8763
G1 X107.105 Y106.095 E127.0409
G1 X107.763 Y106.351 E127.1584
G1 X108.168 Y106.573 E127.2352
G1 X108.841 Y107.058 E127.3731
G1 X109.185 Y107.379 E127.4514
G1 X109.539 Y107.781 E127.5404
G1 X109.951 Y108.396 E127.6636
G1 X110.238 Y108.979 E127.7716
G1 X110.411 Y109.467 E127.8577
G1 X110.517 Y109.906 E127.9328
G1 X110.607 Y110.537 E128.0388
G1 X110.625 Y110.919 E128.1024
G1 X110.622 Y117.945 E129.2708
G1 X110.585 Y118.488 E129.3614
G1 X110.519 Y118.885 E129.4283
G1 X110.380 Y119.430 E129.5218
G1 X110.163 Y119.996 E129.6226
G1 X109.811 Y120.635 E129.7440
G1 X109.504 Y121.058 E129.8309
G1 X109.343 Y121.248 E129.8723
G1 X108.969 Y121.632 E129.9614
G1 X108.699 Y121.861 E130.0203
G1 X108.204 Y122.202 E130.1203
G1 X107.672 Y122.487 E130.2206
G1 X107.189 Y122.679 E130.3071
G1 X106.505 Y122.858 E130.4247
G1 X106.050 Y123.004 E130.5041
G1 X105.604 Y123.223 E130.5867
G1 X105.195 Y123.505 E130.6694
G1 X104.832 Y123.843 E130.7518
G1 X104.521 Y124.231 E130.8345
G1 X104.271 Y124.660 E130.9171
G1 X104.086 Y125.120 E130.9996
G1 X103.969 Y125.604 E131.0824
G1 X103.925 Y126.141 E131.1720
G1 X103.925 Y136.696 E132.9273
G1 X103.901 Y137.174 E133.0069
G1 X103.822 Y137.695 E133.0945
G1 X103.630 Y138.360 E133.2096
G1 X103.423 Y138.830 E133.2950
G1 X103.166 Y139.272 E133.3800
G1 X102.852 Y139.696 E133.4678
G1 X102.430 Y140.151 E133.5710
G1 X101.928 Y140.592 E133.6821
G1 X101.506 Y140.881 E133.7672
G1 X101.050 Y141.125 E133.8532
G1 X100.572 Y141.312 E133.9385
G1 X100.072 Y141.447 E134.0247
G1 X99.543 Y141.526 E134.1136
G1 X99.049 Y141.550 E134.1959
G1 X66.063 Y141.550 E139.6815
G1 X65.578 Y141.525 E139.7622
G1 X64.907 Y141.412 E139.8754
G1 X64.397 Y141.253 E139.9642
G1 X63.915 Y141.038 E140.0520
G1 X63.399 Y140.733 E140.1517
G1 X63.127 Y140.546 E140.2066
G1 X62.613 Y140.131 E140.3164
G1 X62.250 Y139.756 E140.4032
G1 X61.931 Y139.343 E140.4900
G1 X61.660 Y138.894 E140.5772
G0 F9000 X61.812 Y138.836
G1 F960 X61.812 Y126.186 E142.6809
G0 F9000 X64.236 Y123.888
G1 F960 X64.236 Y141.006 E145.5277
G0 F9000 X66.660 Y141.390
G1 F960 X66.660 Y123.560 E148.4928
G0 F9000 X69.084 Y123.560
G1 F960 X69.084 Y141.390 E151.4579
G0 F9000 X71.508 Y141.390
G1 F960 X71.508 Y123.560 E154.4231
G0 F9000 X73.932 Y123.560
G1 F960 X73.932 Y141.390 E157.3882
G0 F9000 X76.356 Y141.390
G1 F960 X76.356 Y123.560 E160.3534
G0 F9000 X78.780 Y123.560
G1 F960 X78.780 Y141.390 E163.3185
G0 F9000 X81.204 Y141.390
G1 F960 X81.204 Y123.359 E166.3171
G0 F9000 X83.628 Y121.451
G1 F960 X83.628 Y141.390 E169.6329
G0 F9000 X86.052 Y141.390
G1 F960 X86.052 Y112.760 E174.3941
G0 F9000 X88.476 Y108.259
G1 F960 X88.476 Y141.390 E179.9038
G0 F9000 X90.900 Y141.390
G1 F960 X90.900 Y103.758 E186.1621
G0 F9000 X93.324 Y99.853
G1 F960 X93.324 Y141.390 E193.0697
G0 F9000 X95.748 Y141.390
G1 F960 X95.748 Y98.677 E200.1729
G0 F9000 X98.172 Y98.615
G1 F960 X98.172 Y141.390 E207.2864
G0 F9000 X100.596 Y141.131
G1 F960 X100.596 Y98.838 E214.3198
G0 F9000 X103.020 Y100.749
G1 F960 X103.020 Y139.202 E220.7145
G0 F9000 X105.444 Y123.140
G1 F960 X105.444 Y105.665 E223.6206
G0 F9000 X107.868 Y106.592
G1 F960 X107.868 Y122.201 E226.2164
G0 F9000 X110.292 Y119.127
G1 F960 X110.292 Y109.658 E227.7911
;PRINTING_TIME: 136
;REMAINING_TIME: 5686
M106 S255
;LAYER:-1
;Z:1.230
;HEIGHT:0.380
;PRINTING: NON-OBJECT
;PRINTING_ID: -1
G0 F900 Z1.230
G0 F9000 X101.119 Y99.000
;TYPE:RAFT
;WIDTH:0.600
G1 F1800 X94.554 Y99.000 E228.4134
G0 F9000 X92.921 Y100.200
G1 F1800 X102.674 Y100.200 E229.3379
G0 F9000 X103.398 Y101.400
G1 F1800 X92.125 Y101.400 E230.4065
G0 F9000 X91.479 Y102.600
G1 F1800 X103.746 Y102.600 E231.5693
G0 F9000 X103.977 Y103.800
G1 F1800 X90.832 Y103.800 E232.8153
G0 F9000 X90.186 Y105.000
G1 F1800 X104.700 Y105.000 E234.1911
G0 F9000 X107.033 Y106.200
G1 F1800 X89.540 Y106.200 E235.8493
G0 F9000 X88.894 Y107.400
G1 F1800 X109.032 Y107.400 E237.7582
G0 F9000 X109.919 Y108.600
G1 F1800 X88.247 Y108.600 E239.8126
G0 F9000 X87.601 Y109.800
G1 F1800 X110.368 Y109.800 E241.9707
G0 F9000 X110.504 Y111.000
G1 F1800 X86.955 Y111.000 E244.2029
G0 F9000 X86.308 Y112.200
G1 F1800 X110.504 Y112.200 E246.4965
G0 F9000 X110.503 Y113.400
G1 F1800 X85.662 Y113.400 E248.8512
G0 F9000 X85.101 Y114.600
G1 F1800 X110.503 Y114.600 E251.2591
G0 F9000 X110.502 Y115.800
G1 F1800 X84.887 Y115.800 E253.6872
G0 F9000 X84.868 Y117.000
G1 F1800 X110.502 Y117.000 E256.1171
G0 F9000 X110.484 Y118.200
G1 F1800 X84.868 Y118.200 E258.5452
G0 F9000 X84.798 Y119.400
G1 F1800 X110.262 Y119.400 E260.9590
G0 F9000 X109.687 Y120.600
G1 F1800 X84.299 Y120.600 E263.3656
G0 F9000 X83.223 Y121.800
G1 F1800 X108.575 Y121.800 E265.7687
G0 F9000 X105.784 Y123.000
G1 F1800 X81.873 Y123.000 E268.0353
G0 F9000 X63.536 Y124.200
G1 F1800 X104.400 Y124.200 E271.9088
G0 F9000 X103.894 Y125.400
G1 F1800 X62.257 Y125.400 E275.8557
G0 F9000 X61.566 Y126.600
G1 F1800 X103.804 Y126.600 E279.8595
G0 F9000 X103.804 Y127.800
G1 F1800 X61.275 Y127.800 E283.8908
G0 F9000 X61.244 Y129.000
G1 F1800 X103.804 Y129.000 E287.9252
G0 F9000 X103.804 Y130.200
G1 F1800 X61.244 Y130.200 E291.9595
G0 F9000 X61.244 Y131.400
G1 F1800 X103.804 Y131.400 E295.9938
G0 F9000 X103.804 Y132.600
G1 F1800 X61.244 Y132.600 E300.0281
G0 F9000 X61.244 Y133.800
G1 F1800 X103.804 Y133.800 E304.0624
G0 F9000 X103.804 Y135.000
G1 F1800 X61.244 Y135.000 E308.0968
G0 F9000 X61.244 Y136.200
G1 F1800 X103.804 Y136.200 E312.1311
G0 F9000 X103.743 Y137.400
G1 F1800 X61.309 Y137.400 E316.1535
G0 F9000 X61.650 Y138.600
G1 F1800 X103.392 Y138.600 E320.1102
G0 F9000 X102.590 Y139.800
G1 F1800 X62.459 Y139.800 E323.9143
G0 F9000 X64.123 Y141.000
G1 F1800 X101.028 Y141.000 E327.4126
;PRINTING_TIME: 176
;REMAINING_TIME: 5646
;LAYER:-1
;Z:1.450
;HEIGHT:0.220
;PRINTING: NON-OBJECT
;PRINTING_ID: -1
G0 F900 Z1.450
G0 F9000 X110.388 Y109.716
;TYPE:RAFT
;WIDTH:0.400
G1 F3600 X109.004 Y107.319 E327.5949
G0 F9000 X108.042 Y106.595
G1 F3600 X110.544 Y110.928 E327.9244
G0 F9000 X110.543 Y111.869
G1 F3600 X107.304 Y106.258 E328.3510
G0 F9000 X106.642 Y106.053
G1 F3600 X110.543 Y112.811 E328.8649
G0 F9000 X110.543 Y113.752
G1 F3600 X105.980 Y105.849 E329.4659
G0 F9000 X105.166 Y105.382
G1 F3600 X110.542 Y114.693 E330.1739
G0 F9000 X110.542 Y115.634
G1 F3600 X100.842 Y98.834 E331.4515
G0 F9000 X100.187 Y98.642
G1 F3600 X110.541 Y116.576 E332.8152
G0 F9000 X110.541 Y117.517
G1 F3600 X99.595 Y98.557 E334.2570
G0 F9000 X99.037 Y98.533
G1 F3600 X110.509 Y118.403 E335.7679
G0 F9000 X110.377 Y119.117
G1 F3600 X98.494 Y98.535 E337.3331
G0 F9000 X97.951 Y98.536
G1 F3600 X110.182 Y119.721 E338.9440
G0 F9000 X109.937 Y120.240
G1 F3600 X97.408 Y98.538 E340.5943
G0 F9000 X96.865 Y98.539
G1 F3600 X109.662 Y120.704 E342.2798
G0 F9000 X109.350 Y121.106
G1 F3600 X96.322 Y98.540 E343.9957
G0 F9000 X95.806 Y98.589
G1 F3600 X109.014 Y121.466 E345.7354
G0 F9000 X108.657 Y121.790
G1 F3600 X95.313 Y98.678 E347.4929
G0 F9000 X94.855 Y98.827
G1 F3600 X108.269 Y122.060 E349.2596
G0 F9000 X107.861 Y122.294
G1 F3600 X94.424 Y99.022 E351.0293
G0 F9000 X94.010 Y99.246
G1 F3600 X107.432 Y122.494 E352.7971
G0 F9000 X106.978 Y122.649
G1 F3600 X93.620 Y99.513 E354.5565
G0 F9000 X93.248 Y99.810
G1 F3600 X106.505 Y122.773 E356.3026
G0 F9000 X106.046 Y122.920
G1 F3600 X92.903 Y100.155 E358.0337
G0 F9000 X92.591 Y100.556
G1 F3600 X105.621 Y123.125 E359.7499
G0 F9000 X105.227 Y123.385
G1 F3600 X92.301 Y100.997 E361.4524
G0 F9000 X92.035 Y101.477
G1 F3600 X104.866 Y123.701 E363.1424
